!!!COM: Ockeghem, Johannes
!!!CDT: ~1425-1497/02/06
!!!OTL: O rosa bella
!!!AGN: Chanson
!!!SCT: Ock3014
!!!SCA: Ock3014
!!!voices: 2
**kern	**text	**text	**kern	**text	**text
*staff2	*staff2	*	*staff1	*staff1	*
*Ivox	*	*	*Ivox	*	*
*I"2	*	*	*I"1	*	*
*I'2	*	*	*I'1	*	*
*>[A,B]	*>[A,B]	*	*>[A,B]	*>[A,B]	*
*>A	*>A	*	*>A	*>A	*
*clefG2	*	*	*clefG2	*	*
*k[]	*	*	*k[b-]	*	*
*M4/2	*	*	*M2/1	*	*
*met(C|)	*	*	*met(C|)	*	*
!!incipit: 4
=1-	=1-	=	=1-	=1-	=
*rscale:2	*	*	*	*	*
!!LO:TX:Z=16:t=Lower voice by Bedyngham
1.g	O,	O,	1g	O,	O,
.	.	.	2.b-\	.	.
2e	.	.	.	.	.
.	.	.	4g/	.	.
=2-	=2	=	=2	=2	=
2f	.	.	1a	.	.
4e/	.	.	.	.	.
4f/	.	.	.	.	.
2g	.	.	2g/	.	.
4f/	.	.	[2d/	.	.
4e/	.	.	.	.	.
=3	=3	=	=3	=3	=
1d	.	.	4d/]	.	.
.	.	.	4e/	.	.
.	.	.	2f/	.	.
2r	.	.	2g/	.	.
2c	.	.	[2a/	.	.
=4-	=4	=	=4	=4	=
2d	.	.	4a/]	.	.
.	.	.	4f/	.	.
2B-	.	.	2.g/	.	.
1A	.	.	.	.	.
.	.	.	4f#i/	.	.
.	.	.	4f#i/	.	.
.	.	.	4e/	.	.
=5	=5	=	=5	=5	=
1G	.	.	2g/	.	.
.	.	.	4f/	.	.
.	.	.	4e/	.	.
2r	.	.	1d	.	.
2f	.	.	.	.	.
=6-	=6	=	=6	=6	=
2g	.	.	2r	.	.
2b-	.	.	2c/	.	.
4a/	.	.	2d/	.	.
4g/	.	.	.	.	.
[2g	.	.	4c/	.	.
.	.	.	4B-/	.	.
=7	=7	=	=7	=7	=
2g]	.	.	1A	.	.
2f#i	.	.	.	.	.
1g	.	.	1G	.	.
=8-	=8	=	=8	=8	=
2r	.	.	1G	.	.
2d	o	o	.	.	.
2d	ro-	dio	2r	.	.
2d	-sa	d'a-	2d/	o	o
=9	=9	=	=9	=9	=
2B-	bel-	-mo-	2d/	ro-	dio
2G	-la,	-re	2d/	-sa	d'a-
2r	.	.	2B-/	bel-	-mo-
2d	O	Che	2G/	-la,	-re
=10-	=10	=	=10	=10	=
1e-i	dol-	pe-	2r	.	.
.	.	.	1c	O	Che
1d	-ce	-na'e	.	.	.
.	.	.	2B-/	dol-	pe-
=11	=11	=	=11	=11	=
2c	a-	que-	2c/	-ce'a-	-na'e
2B-i	-ni-	.	2d/	-ni-	que-
1G	-ma	-sta'a-	4e/	-ma	-sta'a
.	.	.	4f/	.	.
.	.	.	[2g/	.	-ma-
=12-	=12	=	=12	=12	=
1A	mi-	-ma-	4g/]	.	.
.	.	.	4f#i/	.	.
.	.	.	4f#i/	mi-	.
.	.	.	4e/	.	.
1G	-a.	-re.	2g/	-a.	-re.
.	.	.	2r	.	.
=13	=13	=	=13	=13	=
2r	.	.	1a	Non	Ve-
2f	Non	Ve-	.	.	.
1g	mi	-di	2b-\	.	.
.	.	.	[2g/	mi	.
=14-	=14	=	=14	=14	=
1b-i	las-	ch'io	2g/]	.	-di
.	.	.	2g/	las-	ch'io
[1a	-sar	mo-	2.d/	-sar	mo-
.	.	.	4e/	.	.
=15	=15	=	=15	=15	=
2a]	.	.	2f/	.	-ro
2a	mo-	-ro	2f/	mo-	tut-
1g	-ri-	.	1g	-ri-	-ho-
=16-	=16	=	=16	=16	=
2g	.	tut-	2b-\	.	.
1f	.	-ho-	1a	.	.
[2e	.	.	[2g/	.	.
=17	=17	=	=17	=17	=
4e/]	.	.	2g/]	.	.
4d/	.	.	.	.	.
1d	.	.	2a/	.	.
.	.	.	2f/	.	.
2c#i	.	.	2e/	.	.
=18-	=18	=	=18	=18	=
1d	-re	-ra	4d/	.	.
.	.	.	4c/	.	.
.	.	.	4B-/	.	.
.	.	.	4A/	.	.
2r	.	.	1G	.	.
2g	in	per	.	.	.
=19	=19	=	=19	=19	=
1f	cor-	'sta	1d	-re	-ra
1e	-te-	giu-	2r	.	.
.	.	.	2g/	in	per
=20-	=20	=	=20	=20	=
2d	-si-	-de-	1f	cor-	'sta
2d	-a.	-a,	.	.	.
2r	.	.	1e	-te-	giu-
2c	in	per	.	.	.
=21	=21	=	=21	=21	=
2B-i	cor-	'sta	2d/	-si-	-de-
2.d	.	.	2.d/	-a.	-a,
4c/	-te-	giu-	4e/	.	.
4B-i/	-si-	-de-	2f/	.	.
4A/	.	.	.	.	.
=22-	=22	=	=22	=22	=
1G	-a.	-a,	2g/	.	.
.	.	.	2G/	in	per
2r	.	.	1A	cor-	'sta
2f	in	per	.	.	.
=23	=23	=	=23	=23	=
2g	cor-	'sta	2G/	-te-	giu-
1a	.	.	1c	-si-	-de-
2f	-te-	giu-	2B-/	.	.
=24-	=24	=	=24	=24	=
2g	-si-	-de-	1G	-a.	-a,
4f/	.	.	.	.	.
4e/	.	.	.	.	.
1d	-a.	-a,	2r	.	.
.	.	.	2B-/	in	per
=25	=25	=	=25	=25	=
2e	cor-	per	2c/	cor-	'sta
2.f	.	'sta	2.B-/	.	.
4g/	.	.	4A/	.	.
2a	-te-	giu-	2F/	-te-	giu-
=26-	=26	=	=26	=26	=
2b-i	-si-	-de-	2.G/	-si-	-de-
4a/	.	.	.	.	.
4g/	.	.	4E/	.	.
!LO:N:vis=1	!	!	!LO:N:vis=1	!	!
1f#;l	-a.	-a.	1D;l	-a.	-a.
!!LO:LB:i:g=z
=27||	=27||	=	=27||	=27||	=
*>B	*>B	*	*>B	*>B	*
*clefG2	*	*	*clefG2	*	*
*k[]	*	*	*k[b-]	*	*
*M4/2	*	*	*M2/1	*	*
*met(C|)	*	*	*met(C|)	*	*
1f	Ai	Soc-	1A	Ai	Soc-
2f	las-	-co-	2A/	las-	-co-
2f	-so	-re-	2A/	-so	-re-
=28	=28	=	=28	=28	=
2g	mi,	mi,	1G	mi,	-mi,
4f/	.	.	.	.	.
4e/	.	.	.	.	.
2d	.	.	2r	.	.
2e-i	Ai	soc-	[2g/	Ai	soc-
=29	=29	=	=29	=29	=
2d	las-	-co-	4g/]	.	.
.	.	.	4f/	.	.
4c/	.	.	2g/	.	.
4B-i/	.	.	.	.	.
1A	-so	-re-	2a/	las-	-co-
.	.	.	2f#i/	-so	-re-
=30	=30	=	=30	=30	=
1G	mi,	-mi,	2g/	mi,	-mi,
.	.	.	2r	.	.
2r	.	.	2.a/	Ai	soc-
2d	Ai	soc-	.	.	.
.	.	.	4g/	.	.
=31	=31	=	=31	=31	=
2d	las-	-co-	1f	las-	-co-
2d	-so	-re-	.	.	.
1c	mi,	-mi	2e/	-so	-re-
.	.	.	[2g/	mi,	-mi
=32	=32	=	=32	=32	=
2e-i	do-	or-	4g/]	.	.
.	.	.	4f/	.	.
1d	.	-mai,	2f/	do-	or-
.	.	.	1e-i	-len-	-mai,
2c	.	.	.	.	.
=33	=33	=	=33	=33	=
2d	-len-	.	2.d/	.	.
4c/	.	.	.	.	.
4B-i/	.	.	4e/	.	.
2A	.	.	[1f	.	.
[2d	.	.	.	.	.
=34	=34	=	=34	=34	=
4d/]	.	.	2f/]	.	.
4c/	.	.	.	.	.
4B-i/	.	.	2f/	.	or-
4A/	.	.	.	.	.
2G	.	.	2g/	.	-mai.
[2c	.	or-	4f/	.	.
.	.	.	4e/	.	.
=35	=35	=	=35	=35	=
2c]	.	.	1d	-te	.
2Bni	.	.	.	.	.
1c	-te	-mai.	2r	.	.
.	.	.	2e-i/	de-	del
=36	=36	=	=36	=36	=
2r	.	.	2c/	-zo	mi-
2g	de-	del	4B-/	.	.
.	.	.	4A/	.	.
1g	-zo	mio	1G	.	-o
=37	=37	=	=37	=37	=
1f	fi-	lan-	2.A/	fi-	lan-
.	.	.	4B-/	.	.
2e	-ni-	-gui-	2c/	-ni-	-gui-
[2d	-re,	-re,	4B-/	.	.
.	.	.	4A/	.	.
=38	=38	=	=38	=38	=
2d]	.	.	1G	-re,	-re,
2g	Per	Cor	.	.	.
1f	ben	del	2r	.	.
.	.	.	2A/	Per	Cor
=39	=39	=	=39	=39	=
1e	ser-	cor-	1c	ben	del
2d	-vi-	-po	2B-/	ser-	cor-
[2c	.	mi-	[2A/	-vi-	-po
=40	=40	=	=40	=40	=
2c]	.	.	2A/]	.	.
2B-i	.	.	2.g/	.	mi-
1A	.	.	.	.	.
.	.	.	4e/	.	.
.	.	.	2f#i/	.	.
=41	=41	=	=41	=41	=
1G	-re	-o.	1g	-re	-o,
1r	.	.	2a/	e	Non
.	.	.	[2b-\	li-	.
=42	=42	=	=42	=42	=
1g	e	Non	2b-\]	.	.
.	.	.	4a/	.	.
.	.	.	4g/	.	.
[1a	li-	mi	1f	.	mi
=43	=43	=	=43	=43	=
2a]	.	.	2d/	.	.
2g	.	.	2e/	.	.
1a	-al-	las-	1f	-al-	las-
=44	=44	=	=44	=44	=
[1b-	-men-	-sar	4g/	-men-	-sar
.	.	.	4f/	.	.
.	.	.	4g/	.	.
.	.	.	4a/	.	.
1b-]	.	.	4b-\	.	.
.	.	.	4cc\	.	.
.	.	.	4b-\	.	.
.	.	.	8a/L	.	.
.	.	.	8g/J	.	.
=45	=45	=	=45	=45	=
1a	-te'a-	.	4g/	.	.
.	.	.	4f#i/	.	.
.	.	.	4f#i/	.	.
.	.	.	4e/	.	.
2.g	-ma-	.	2g/	-te	.
.	.	.	2r	.	.
4f/	.	mo-	.	.	.
=46	=46	=	=46	=46	=
2d	.	-ri-	2a/	a-	mo-
2e	.	.	4g/	.	.
.	.	.	4f/	.	.
2f	-re.	-re,	2d/	.	.
2r	.	.	2f/	.	.
=47	=47	=	=47	=47	=
2g	e	mo-	2e/	-ma-	-ri-
2a	li-	.	2d/	-re.	-re,
2b-i	-al-	.	2r	.	.
[2cc	-men-	-ri-	[2c/	a-	mo-
=48	=48	=	=48	=48	=
4cc\]	.	.	4c/]	.	.
4b-i\	.	.	4d/	.	.
4a/	.	.	4c/	.	.
4g/	.	.	8d/L	.	.
.	.	.	8e/J	.	.
2f	-te	-re,	2f/	.	.
2b-i	a-	mo-	2d/	.	.
=49	=49	=	=49	=49	=
4a/	-ma-	-ri-	4c/	.	.
4g/	.	.	4B-/	.	.
1g	.	.	2G/	.	.
.	.	.	1A	-ma-	-ri-
2f#i	.	.	.	.	.
=50	=50	=	=50	=50	=
!LO:N:vis=00	!	!	!	!	!
[1gl	-re.	-re.	0Gl	-re.	-re.
1g]	.	.	.	.	.
=||	=||	=	=||	=||	=
*-	*-	*-	*-	*-	*-
!!!RDF**kern: l=long note in original notation
!!!RDF**kern: i=editorial accidental
!!!RDF**kern: V=start of tuplet marker
!!!RDF**kern: Z=end of tuplet marker
!!!ENC: Jesse Rodin
!!!END: 2012/08/16/
!!!EED: Jesse Rodin
!!!EEV: 2012/07/29/
!!!ONB: Translated from MusicXML and edited on 2012/08/16/ by Craig Sapp
!!muse2ps: C^@{COM}^i2I150v120,130z18c90l2600
